svg/fluentui-system-icons/ic_fluent_edit_arrow_back_16_regular.svg

<svg width="16" height="16" viewBox="0 0 16 16" fill="none" xmlns="http://www.w3.org/2000/svg">
<path d="M12.4403 1.56066C11.6927 0.813137 10.4808 0.81311 9.73321 1.5606L2.33829 8.95484C2.15725 9.13586 2.02085 9.35655 1.93989 9.59943L1.02567 12.3421C0.965783 12.5218 1.01254 12.7198 1.14646 12.8538C1.28038 12.9877 1.47846 13.0344 1.65813 12.9746L4.40087 12.0603C4.64368 11.9794 4.86432 11.843 5.04531 11.662L5.10957 11.5978C5.03772 11.243 5 10.8759 5 10.5C5 10.4294 5.00133 10.3592 5.00396 10.2892L4.33823 10.9549C4.26701 11.0261 4.18019 11.0798 4.08464 11.1116L2.29058 11.7096L2.88858 9.91566C2.92044 9.82007 2.97412 9.73322 3.04536 9.66198L9.0003 3.70759L10.2932 5.00048L10.2897 5.00395C10.3595 5.00132 10.4296 5 10.5 5C10.8761 5 11.2434 5.03775 11.5983 5.10967L12.4402 4.26783C13.1878 3.52029 13.1878 2.30823 12.4403 1.56066ZM10.4403 2.26774C10.7973 1.91074 11.3761 1.91076 11.7331 2.26777C12.0902 2.6248 12.0902 3.20367 11.7331 3.56069L11.0003 4.29341L9.70744 3.00052L10.4403 2.26774ZM10.5 15C12.9853 15 15 12.9853 15 10.5C15 8.01472 12.9853 6 10.5 6C8.01472 6 6 8.01472 6 10.5C6 12.9853 8.01472 15 10.5 15ZM9.60355 8.60355L8.70711 9.5H10.25C11.7688 9.5 13 10.7312 13 12.25V12.5C13 12.7761 12.7761 13 12.5 13C12.2239 13 12 12.7761 12 12.5V12.25C12 11.2835 11.2165 10.5 10.25 10.5H8.70711L9.60355 11.3964C9.79882 11.5917 9.79882 11.9083 9.60355 12.1036C9.40829 12.2988 9.09171 12.2988 8.89645 12.1036L7.14433 10.3514C7.09744 10.304 7.06198 10.2495 7.03794 10.1914C7.01349 10.1324 7 10.0678 7 10C7 9.93221 7.01349 9.86756 7.03794 9.80861C7.06234 9.74964 7.09851 9.69439 7.14645 9.64645L8.89645 7.89645C9.09171 7.70118 9.40829 7.70118 9.60355 7.89645C9.79882 8.09171 9.79882 8.40829 9.60355 8.60355Z" fill="#212121"/>
</svg>

<svg xmlns="http://www.w3.org/2000/svg" width="16" height="16"><path d="M12.44 1.56a1.914 1.914 0 0 0-2.707 0L2.338 8.956a1.649 1.649 0 0 0-.398.644l-.914 2.743a.5.5 0 0 0 .632.633l2.743-.915c.243-.08.463-.217.644-.398l.065-.064a5.527 5.527 0 0 1-.106-1.309l-.666.666a.648.648 0 0 1-.253.157l-1.794.598.598-1.794a.649.649 0 0 1 .156-.254L9 3.708 10.293 5l-.003.004a5.585 5.585 0 0 1 1.308.106l.842-.842a1.914 1.914 0 0 0 0-2.707Zm-2 .708a.914.914 0 1 1 1.293 1.293L11 4.293 9.707 3.001l.733-.733ZM10.5 15a4.5 4.5 0 1 0 0-9 4.5 4.5 0 0 0 0 9Zm-.896-6.396-.897.896h1.543A2.75 2.75 0 0 1 13 12.25v.25a.5.5 0 0 1-1 0v-.25a1.75 1.75 0 0 0-1.75-1.75H8.707l.897.896a.5.5 0 0 1-.708.708L7.144 10.35a.498.498 0 0 1 .002-.705l1.75-1.75a.5.5 0 1 1 .708.708Z"/></svg>
